dist/images/logo.svg

<svg width="26" height="26" viewBox="0 0 26 26" fill="none" xmlns="http://www.w3.org/2000/svg">
<path d="M13 0C5.83541 0 0 5.83541 0 13C0 20.1646 5.83541 26 13 26C20.1646 26 26 20.1646 26 13C26 5.83541 20.1646 0 13 0ZM11.2818 0.777939C10.4064 1.42626 9.46639 2.52845 8.62333 3.92258C8.29904 4.47367 7.87775 5.25181 7.48855 6.19185H2.72319C4.63585 3.30656 7.7156 1.26434 11.2818 0.777881V0.777939ZM2.30175 6.84028H7.22948C6.64606 8.39634 6.15966 10.4065 6.09471 12.6757L0.68074 12.6755C0.713304 10.5684 1.32906 8.55844 2.30169 6.84006L2.30175 6.84028ZM0.680798 13.3241H6.12707C6.1594 15.4312 6.58092 17.4088 7.26185 19.1595L2.30175 19.1593C1.32912 17.4411 0.713332 15.4312 0.680798 13.3238V13.3241ZM2.72325 19.8079H7.48884C8.52636 22.2716 9.95262 24.2168 11.2495 25.2218C7.68329 24.7031 4.63603 22.6606 2.72331 19.8079H2.72325ZM12.6759 25.2865C11.4764 24.9622 9.49887 22.8874 8.16963 19.8076L12.6759 19.8079V25.2865ZM12.6759 19.1593H7.91028C7.26196 17.4411 6.8081 15.4636 6.7755 13.3239L12.6758 13.3241L12.6759 19.1593ZM12.6759 12.6755H6.7432C6.77554 10.5358 7.26196 8.55826 7.91028 6.84011L12.6756 6.84034L12.6759 12.6755ZM12.6759 6.19173H8.20223C9.53146 3.14429 11.4765 1.10184 12.6761 0.777765L12.6759 6.19173ZM13.3244 0.777765C14.5239 1.10205 16.4691 3.14429 17.7983 6.19173H13.3244V0.777765ZM13.3244 6.84011H18.09C18.7709 8.55831 19.2248 10.5359 19.2571 12.6755L13.3244 12.6753V6.84011ZM13.3244 13.3239H19.2571C19.2248 15.4636 18.7709 17.4412 18.1223 19.1593L13.3244 19.1591L13.3244 13.3239ZM13.3244 19.8077H17.8307C16.5014 22.8874 14.5239 24.9622 13.3244 25.2863V19.8077ZM14.8156 25.2217C15.6909 24.5407 16.5987 23.4711 17.3766 22.1419C17.7008 21.5908 18.1221 20.7803 18.5436 19.8077H23.2769C21.3966 22.6604 18.3492 24.6706 14.8156 25.2217V25.2217ZM23.6984 19.1593H18.803C19.3864 17.5707 19.8728 15.5931 19.9052 13.3239L25.3193 13.3241C25.2868 15.4312 24.671 17.4412 23.6984 19.1595V19.1593ZM25.3193 12.6755H19.9054C19.873 10.5684 19.4192 8.59079 18.7706 6.84011L23.6983 6.84034C24.6709 8.55854 25.2867 10.5684 25.3193 12.6757L25.3193 12.6755ZM18.5113 6.19173C17.4738 3.69541 15.9827 1.75039 14.686 0.777765C18.2845 1.26396 21.3967 3.30644 23.3095 6.19173H18.5113Z" fill="white"/>
</svg>

<svg width="26" height="26" fill="none" xmlns="http://www.w3.org/2000/svg"><path d="M13 0C5.835 0 0 5.835 0 13s5.835 13 13 13 13-5.835 13-13S20.165 0 13 0zm-1.718.778c-.876.648-1.816 1.75-2.659 3.145-.324.55-.745 1.329-1.134 2.269H2.723C4.636 3.307 7.716 1.264 11.282.778zM2.302 6.84h4.927a18.279 18.279 0 00-1.134 5.836H.68c.032-2.108.648-4.118 1.62-5.836zM.68 13.324h5.446a16.835 16.835 0 001.135 5.836h-4.96C1.329 17.44.713 15.43.68 13.323zm2.042 6.484H7.49c1.037 2.464 2.464 4.409 3.76 5.414-3.566-.519-6.613-2.561-8.526-5.414zm9.953 5.479c-1.2-.325-3.177-2.4-4.506-5.48h4.506v5.48zm0-6.128H7.91a17.305 17.305 0 01-1.135-5.835h5.9v5.835zm0-6.483H6.743c.033-2.14.519-4.118 1.167-5.836h4.766v5.835zm0-6.484H8.202c1.33-3.048 3.274-5.09 4.474-5.414v5.414zm.648-5.414c1.2.324 3.145 2.366 4.474 5.414h-4.474V.778zm0 6.062h4.766a16.54 16.54 0 011.167 5.835h-5.933V6.84zm0 6.484h5.933a17.29 17.29 0 01-1.135 5.835h-4.798v-5.835zm0 6.484h4.507c-1.33 3.08-3.307 5.154-4.507 5.478v-5.478zm1.492 5.414c.875-.681 1.783-1.75 2.56-3.08a22.03 22.03 0 001.168-2.334h4.733a12.415 12.415 0 01-8.461 5.414zm8.882-6.063h-4.895a17.641 17.641 0 001.102-5.835h5.414c-.032 2.107-.648 4.117-1.62 5.836zm1.621-6.483h-5.414c-.032-2.108-.486-4.085-1.134-5.836h4.927c.973 1.719 1.589 3.728 1.621 5.836zM18.51 6.192C17.474 3.695 15.983 1.75 14.686.778a12.35 12.35 0 018.623 5.414h-4.798z" fill="#fff"/></svg>
